X: 36827
T: Shilley O'Guire
R: jig
M: 6/8
K: Gmajor
|:D|GBB Acc|Bdd c2 e|dcB Adc|BGGG2:|
z|GBd g2e|ecc c3|Ace a2g|fdd d3|
GBd g2e|ecc d2c|BGB cAd|BGG G3|

